assets/images/payments/neteller.svg

<svg width="100" height="60" viewBox="0 0 100 60" version="1.1" xmlns="http://www.w3.org/2000/svg" xmlns:xlink="http://www.w3.org/1999/xlink"><title>Neteller-light</title><desc>Created with Sketch.</desc><g id="Light-Payment-badges" stroke="none" stroke-width="1" fill="none" fill-rule="evenodd" transform="translate(-130.000000, -1089.000000)"><g id="Neteller-light" transform="translate(130.000000, 1089.000000)"><rect id="Rectangle" fill="#FFF" x="0" y="0" width="100" height="60" rx="4"/><path d="M84.6540443,29.138125 C84.2010666,29.448925 83.5436443,29.602575 82.6440888,29.602575 L82.2536888,29.602575 L81.7519999,29.602575 L82.4360888,25.965725 L82.7827555,25.965725 L83.0920888,25.965725 C83.8387555,25.965725 84.3841777,26.084025 84.7599999,26.324125 C85.0536888,26.512425 85.4017777,26.885175 85.4017777,27.592525 C85.4017777,28.444775 84.9967999,28.903275 84.6540443,29.138125 L84.6540443,29.138125 Z M31.4373332,33.702475 L24.533511,33.702475 L24.9797332,31.325275 L29.3100443,31.325275 L29.8021332,28.647775 L25.5134221,28.647775 L25.9279999,26.295075 L32.8197332,26.295075 L31.4373332,33.702475 L31.4373332,33.702475 Z M88.3731555,24.254575 C87.3580443,23.569625 85.8220443,23.224525 83.8081777,23.224525 L78.5338666,23.224525 L76.5733332,33.702825 L69.6641777,33.702825 L70.1071999,31.325625 L74.2696888,31.325625 L74.7646221,28.655475 L70.6046221,28.662825 L71.0501332,26.295775 L75.336711,26.295775 L75.9070221,23.224875 L67.1994666,23.224875 L65.3384888,33.165225 L62.1455999,33.165225 L64.0200888,23.224875 L59.467911,23.224875 L57.6069332,33.165225 L54.4936888,33.165225 L56.3699555,23.224875 L51.8223999,23.224875 L49.8568888,33.703175 L42.8986666,33.703175 L43.3370666,31.325975 L47.5183999,31.325975 L48.0108443,28.671225 L43.835911,28.667375 L44.2792888,26.295775 L48.613511,26.295775 L49.1809777,23.224875 L22.0531555,23.224875 L20.5089777,31.528625 L17.432711,23.224525 L12.7112888,23.224525 L10.1701332,36.775475 L14.6789332,36.775475 L16.216711,28.243525 L19.202311,36.775475 L35.3630221,36.775475 L37.3274666,26.295425 L39.8561777,26.295425 L37.8906666,36.775475 L80.4143999,36.775475 L81.6460443,30.159425 L83.6424888,36.775475 L88.1537777,36.775475 L86.0869332,31.369725 L86.5587555,31.269275 C87.5983999,31.050175 88.4122666,30.578025 88.9768888,29.870675 C89.5425777,29.156675 89.8298666,28.240025 89.8298666,27.138925 C89.8302221,25.856525 89.3544888,24.913625 88.3731555,24.254575 L88.3731555,24.254575 Z" id="Shape" fill="#8DC640"/></g></g></svg>

<svg width="100" height="60" xmlns="http://www.w3.org/2000/svg"><g fill="none" fill-rule="evenodd"><rect fill="#FFF" width="100" height="60" rx="4"/><path d="M84.654 29.138c-.453.31-1.11.465-2.01.465h-.892l.684-3.637h.657c.746 0 1.291.118 1.667.358.294.188.642.561.642 1.269 0 .852-.405 1.31-.748 1.545zm-53.217 4.564h-6.903l.446-2.377h4.33l.492-2.677h-4.289l.415-2.353h6.892l-1.383 7.407zm56.936-9.447c-1.015-.685-2.551-1.03-4.565-1.03h-5.274l-1.96 10.478h-6.91l.443-2.377h4.163l.495-2.67-4.16.007.445-2.367h4.287l.57-3.071h-8.708l-1.86 9.94h-3.193l1.874-9.94h-4.552l-1.861 9.94h-3.113l1.876-9.94h-4.548l-1.965 10.478h-6.958l.438-2.377h4.181l.493-2.655-4.175-.004.443-2.371h4.335l.567-3.071H22.053l-1.544 8.304-3.076-8.304H12.71l-2.54 13.55h4.508l1.538-8.531 2.985 8.531h16.161l1.964-10.48h2.53l-1.966 10.48h42.523l1.232-6.616 1.996 6.616h4.512l-2.067-5.405.472-.1c1.04-.22 1.853-.692 2.418-1.4.566-.713.853-1.63.853-2.731 0-1.282-.476-2.225-1.457-2.884z" fill="#8DC640"/></g></svg>
